fs/box_edit_20_regular.svg

<svg viewBox="0 0 20 20" fill="none" xmlns="http://www.w3.org/2000/svg" height="1em" width="1em">
  <path d="M11.2999 2.4808C10.4654 2.14702 9.53457 2.14702 8.70013 2.4808L2.94291 4.78369C2.37343 5.01148 2 5.56305 2 6.1764V13.8223C2 14.4357 2.37343 14.9873 2.94291 15.2151L8.70013 17.5179C8.81846 17.5653 8.93874 17.6059 9.0604 17.6398L9.30306 16.6692C9.22495 16.6465 9.14767 16.6199 9.07152 16.5895L3.3143 14.2866C3.12448 14.2106 3 14.0268 3 13.8223V6.23785L9.50015 8.83791V15.9195C9.65673 15.4496 9.92076 15.0214 10.2726 14.6696L10.5001 14.442V8.83791L17 6.23797V9.00251C17.3368 8.98715 17.6757 9.0308 18 9.13343V6.1764C18 5.56305 17.6266 5.01148 17.0571 4.78369L11.2999 2.4808ZM9.07152 3.40928C9.66755 3.17087 10.3324 3.17087 10.9285 3.40928L16.1538 5.49941L13.8751 6.41088L7.72133 3.94935L9.07152 3.40928ZM6.37504 4.48787L12.5289 6.94939L10.0001 7.96088L3.84633 5.49935L6.37504 4.48787ZM10.9798 15.3767L15.8092 10.5473C16.5395 9.81693 17.7237 9.81693 18.454 10.5473C19.1843 11.2776 19.1843 12.4617 18.454 13.1921L13.6246 18.0215C13.343 18.3031 12.9902 18.5028 12.6039 18.5994L11.106 18.9739C10.4546 19.1368 9.86451 18.5467 10.0274 17.8953L10.4018 16.3974C10.4984 16.0111 10.6982 15.6583 10.9798 15.3767Z" fill="#212121"/>
</svg>

<svg viewBox="0 0 20 20" fill="none" xmlns="http://www.w3.org/2000/svg" height="1em" width="1em">
  <path d="M11.3 2.48a3.5 3.5 0 0 0-2.6 0L2.943 4.785A1.5 1.5 0 0 0 2 6.176v7.646a1.5 1.5 0 0 0 .943 1.393L8.7 17.518c.118.047.239.088.36.122l.243-.97a2.526 2.526 0 0 1-.231-.08l-5.758-2.303A.5.5 0 0 1 3 13.822V6.238l6.5 2.6v7.082c.157-.47.42-.899.773-1.25l.227-.228V8.838l6.5-2.6v2.765a2.88 2.88 0 0 1 1 .13V6.176a1.5 1.5 0 0 0-.943-1.392L11.3 2.48Zm-2.228.93a2.5 2.5 0 0 1 1.857 0l5.225 2.09-2.279.91-6.154-2.46 1.35-.54ZM6.375 4.487l6.154 2.461L10 7.961 3.846 5.499l2.529-1.011Zm4.605 10.889 4.83-4.83a1.87 1.87 0 1 1 2.644 2.645l-4.83 4.83a2.197 2.197 0 0 1-1.02.577l-1.498.375a.89.89 0 0 1-1.079-1.079l.375-1.498c.096-.386.296-.739.578-1.02Z" fill="#212121"/>
</svg>
